X:1
T:There Is Joy
T:William Augustine Ogden
T:There Is Joy
T:Public Domain
T:Public Domain
C:William Augustine Ogden
Z:Public Domain
%%score 1 ( 2 3 )
L:1/8
M:4/4
K:C
V:1 treble 
V:2 bass 
V:3 bass 
V:1
 [EG]>[EA] | [CE]2 [EG]2 [EG]2 [EG]>[Ec] | [FA]2 [Fd]2 [Fd]2 [Ac]>[Ac] | %3
w: 1.~When a|sin- ner comes, as a|sin- ner may, There is|
w: 2.~When a|soul is born in the|king- dom bright, There is|
w: 3.~When a|pil- grim comes to the|riv- er wide, There is|
 ([GB]4- [GB][FA]) [EG]>[FA] | [EG]6 [EG]>[EA] | [CE]2 [EG]2 [EG]2 [EG]>[Ec] | %6
w: joy, * * there is|joy; When he|turns to God in the|
w: joy, * * there is|joy; When it|walks by faith in the|
w: joy, * * there is|joy; When he|dwells se- cure on the|
 [FA]2 [Fd]2 [Fd]2 [Ac]>[Ac] | [GB]6 [FA]>[FB] | [Ec]6 ||"^Refrain" [Ec]>[Fd] | %10
w: Gos- pel way, There is|joy, there is|joy.||
w: Gos- pel light, There is|joy, there is|joy.|There is|
w: o- ther side, There is|joy, there is|joy.||
 [Ge]2 [Ec]2 [EG]2 [CE]2 | [FA]2 [EG]4 [EG]>[EG] | [EG]2 [DF]2 [B,D]2 [FA]2 | [EG]6 [Ec]>[Fd] | %14
w: ||||
w: joy a- mong the|an- gels, And their|harps with mu- sic|ring, When a|
w: ||||
 [Ge]2 [Ec]2 [EG]2 [CE]2 | [FA]2 [EG]4 [Gc]>[Fd] | [Ec]2 [DB]2 [FA]2 [FB]2 | [Ec]6 |] %18
w: ||||
w: sin- ner comes re-|pent- ing, Bend- ing|low be- fore the|King.|
w: ||||
V:2
 [C,C]>[C,C] | [C,G,]2 [C,C]2 [C,C]2 [C,C]>[C,C] | [F,C]2 [F,A,]2 [F,A,]2 z2 | %3
w: ~ ~|~ ~ ~ ~ ~|~ ~ ~|
 z2 G,>G, [G,,G,]2 z2 | z2 [C,C]>[C,C] [C,C]2 [C,C]>[C,C] | [C,G,]2 [C,C]2 [C,C]2 [C,C]>[C,C] | %6
w: There is joy,|joy; ~ ~ ~ ~|~ ~ ~ ~ ~|
 [F,C]2 [F,A,]2 [F,A,]2 z2 | z2 G,>G, [G,,G,]2 [G,,G,]>[G,,G,] | [C,G,]6 || [C,G,]>[C,G,] | %10
w: ~ There is|joy, ~ ~ ~ ~|~|~ ~|
 [C,C]2 [C,G,]2 [C,C]2 [C,G,]2 | [C,C]2 [C,C]4 [C,G,]>[C,G,] | %12
w: ~ ~ ~ ~|~ ~ ~ ~|
 [G,,G,]2 [G,,G,]2 [G,,G,]2 [G,,B,]2 | [C,C]2 [C,C]2 [C,C]2 [C,G,]>[C,G,] | %14
w: mu- sic ring, *||
 [C,C]2 [C,G,]2 [C,C]2 [C,G,]2 | [C,C]2 [C,C]4 [E,C]>[F,A,] | G,2 G,2 [G,,G,]2 [G,,G,]2 | %17
w: |||
 [C,G,]6 |] %18
w: |
V:3
 x2 | x8 | x8 | x2 G,>G, x4 | x8 | x8 | x8 | x2 G,>G, x4 | x6 || x2 | x8 | x8 | x8 | x8 | x8 | x8 | %16
w: |||there is||||~ ~|||||||||
 G,2 G,2 x4 | x6 |] %18
w: ||

